assets/images/cac.svg

<svg width="285" height="33" viewBox="0 0 285 33" fill="none" xmlns="http://www.w3.org/2000/svg">
<path fill-rule="evenodd" clip-rule="evenodd" d="M176.243 20.1262V13.7617L183.107 20.1262H176.243ZM209.7 20.1262H191.752L170.545 0V33H176.243V25.7491H189.168L196.99 33H205.318L197.678 25.7491H209.7C211.234 25.7491 212.479 24.4876 212.479 22.938C212.479 21.3843 211.234 20.1262 209.7 20.1262Z" fill="#DF2D17"/>
<path fill-rule="evenodd" clip-rule="evenodd" d="M107.505 20.1262L114.73 13.3195V20.1262H107.505ZM124.45 8.06484C123.79 15.3895 127.371 19.0894 131.535 19.0894C135.699 19.0894 149.579 19.237 149.579 19.237C149.579 19.237 153.302 19.237 153.302 22.3438V24.8604C153.302 24.8604 153.014 27.6353 150.566 27.6353C148.118 27.6353 120.504 27.229 120.504 27.229L120.577 0L99.7267 20.1262H81.8552C80.3244 20.1262 79.0796 21.3843 79.0796 22.938C79.0796 24.4876 80.3244 25.7491 81.8552 25.7491H93.8999L86.3871 33H93.8371L101.536 25.7491H114.73V33H150.672C150.672 33 158.709 32.7044 158.709 25.7491V21.3071C158.709 21.3071 157.539 13.8358 151.55 13.8358H131.827C131.827 13.8358 129.783 13.3195 129.783 10.8029V8.28626C129.783 8.28626 130.147 5.95456 132.082 5.95456H158.709V0H131.608C131.608 0 124.45 1.40513 124.45 8.06484Z" fill="#DF2D17"/>
<path fill-rule="evenodd" clip-rule="evenodd" d="M161.047 33H166.818V1.31055e-05H161.047V33Z" fill="#DF2D17"/>
<path fill-rule="evenodd" clip-rule="evenodd" d="M6.22114 32.2381C5.21709 32.2381 4.32929 32.0835 3.55414 31.7788C2.77566 31.4695 2.12274 31.0468 1.59934 30.4999C1.06932 29.9571 0.675117 29.3129 0.403811 28.5708C0.135818 27.8296 0 27.0308 0 26.1719C0 25.313 0.135818 24.5152 0.403811 23.773C0.675117 23.0283 1.06932 22.3878 1.59934 21.844C2.12274 21.2977 2.77566 20.8716 3.55414 20.5661C4.32929 20.2577 5.21709 20.103 6.22114 20.103C6.92674 20.103 7.57569 20.1664 8.16501 20.2946C8.75534 20.4218 9.32844 20.6201 9.87797 20.8848L9.26484 22.6059C8.35051 22.1661 7.40343 21.9479 6.41295 21.9479C5.11439 21.9479 4.14014 22.3173 3.48457 23.0585C2.83165 23.8006 2.50436 24.8407 2.50436 26.1719C2.50436 27.5039 2.83496 28.5406 3.49484 29.2827C4.15704 30.0238 5.12731 30.3959 6.41295 30.3959C6.79722 30.3959 7.25768 30.3392 7.79101 30.2214C8.32103 30.1074 8.85108 29.9235 9.38111 29.6648L9.95777 31.4061C9.44039 31.6715 8.86796 31.8758 8.23192 32.0234C7.5992 32.1643 6.92674 32.2381 6.22114 32.2381Z" fill="#151616"/>
<path fill-rule="evenodd" clip-rule="evenodd" d="M11.8817 20.3107H20.3164V22.2237H14.3072V25.0923H19.9516V27.0043H14.3072V30.1178H20.4316V32.0305H11.8817V20.3107Z" fill="#151616"/>
<path fill-rule="evenodd" clip-rule="evenodd" d="M30.4863 20.3107H32.987V32.0305H30.4863L26.057 25.3868C25.7853 24.9849 25.5472 24.582 25.3318 24.1894C25.1232 23.7969 24.9373 23.3839 24.7849 22.9544H24.7289C24.8313 23.4416 24.9078 23.9147 24.9671 24.3743C25.0231 24.8303 25.0536 25.2426 25.0536 25.6153V32.0305H22.5485V20.3107H25.2454L29.4823 26.9543C29.7542 27.3596 29.9927 27.7592 30.2047 28.1517C30.4167 28.5476 30.599 28.9606 30.7543 29.3867H30.8143C30.7083 28.8996 30.6287 28.4299 30.5718 27.9706C30.5125 27.5143 30.4863 27.0986 30.4863 26.7292V20.3107Z" fill="#151616"/>
<path fill-rule="evenodd" clip-rule="evenodd" d="M40.5964 32.0305H38.0921V22.2237L34.3753 22.2606V20.3107H44.31V22.2606L40.5964 22.2237V32.0305Z" fill="#151616"/>
<path fill-rule="evenodd" clip-rule="evenodd" d="M52.7267 23.9448C52.7267 23.4346 52.5478 23.0283 52.1967 22.72C51.8422 22.4143 51.3089 22.2606 50.5903 22.2606H48.199V25.7029H50.5903C51.2562 25.7029 51.7796 25.5449 52.1569 25.2332C52.5385 24.9205 52.7267 24.4911 52.7267 23.9448ZM55.2284 23.9448C55.2284 24.7564 54.9766 25.4479 54.4694 26.0146C53.9623 26.5816 53.31 26.9939 52.5147 27.2489L55.5762 32.0305H52.8989L50.107 27.6485H48.199V32.0305H45.6973V20.3107H50.5702C51.3122 20.3107 51.9753 20.408 52.5511 20.5996C53.1311 20.7908 53.6181 21.0461 54.0156 21.3716C54.4168 21.6963 54.7179 22.0828 54.9233 22.5284C55.125 22.9752 55.2284 23.4483 55.2284 23.9448Z" fill="#151616"/>
<path fill-rule="evenodd" clip-rule="evenodd" d="M60.3726 27.528H63.6087L62.9694 25.77L62.0093 22.78H61.9696L61.0086 25.77L60.3726 27.528ZM64.3381 29.4065H59.6408L58.6596 32.0305H56.04L60.7204 20.3107H63.2609L67.9423 32.0305H65.3217L64.3381 29.4065Z" fill="#151616"/>
<path fill-rule="evenodd" clip-rule="evenodd" d="M69.4025 20.3107L71.9075 20.2946V30.0842H77.6447V32.0305H69.4025V20.3107Z" fill="#151616"/>
<path fill-rule="evenodd" clip-rule="evenodd" d="M223.63 32.2381C222.63 32.2381 221.742 32.0835 220.963 31.7788C220.188 31.4695 219.536 31.0468 219.009 30.4999C218.482 29.9571 218.088 29.3129 217.816 28.5708C217.545 27.8296 217.413 27.0308 217.413 26.1719C217.413 25.313 217.545 24.5152 217.816 23.773C218.088 23.0283 218.482 22.3878 219.009 21.844C219.536 21.2977 220.188 20.8716 220.963 20.5661C221.742 20.2577 222.63 20.103 223.63 20.103C224.336 20.103 224.981 20.1664 225.575 20.2946C226.168 20.4218 226.741 20.6201 227.291 20.8848L226.675 22.6059C225.763 22.1661 224.813 21.9479 223.822 21.9479C222.527 21.9479 221.55 22.3207 220.897 23.0585C220.242 23.8006 219.913 24.8407 219.913 26.1719C219.913 27.5039 220.245 28.5406 220.907 29.2827C221.566 30.0275 222.541 30.3959 223.822 30.3959C224.21 30.3959 224.667 30.3392 225.2 30.2214C225.734 30.1074 226.264 29.9235 226.79 29.6685L227.367 31.4061C226.853 31.6715 226.281 31.8758 225.644 32.0234C225.008 32.1677 224.336 32.2381 223.63 32.2381Z" fill="#151616"/>
<path fill-rule="evenodd" clip-rule="evenodd" d="M228.437 20.3107H236.175V22.2271L230.663 22.2237V25.0956H235.84V27.0077H230.663V30.1178H236.278V32.0305H228.437V20.3107Z" fill="#151616"/>
<path fill-rule="evenodd" clip-rule="evenodd" d="M243.191 32.2415C243.191 32.2415 241.114 26.085 240.962 25.5646L239.981 32.0304H237.682L239.359 20.3144H241.621L244.387 28.9968C244.45 28.5674 246.825 20.3144 246.825 20.3144H249.489L251.27 32.0304H248.823L247.968 25.3972C247.812 25.9176 245.544 32.2415 245.544 32.2415H243.191Z" fill="#151616"/>
<path fill-rule="evenodd" clip-rule="evenodd" d="M253.036 20.3144H261.471V22.2237H255.461V25.0956H261.106V27.0077H255.461V30.1178H261.587V32.0305H253.036V20.3144Z" fill="#151616"/>
<path fill-rule="evenodd" clip-rule="evenodd" d="M271.511 20.3144H273.916V32.0305H271.511L266.489 25.3902C266.181 24.9849 265.909 24.5857 265.671 24.1894C265.429 23.7969 265.221 23.3839 265.048 22.9544H264.981C265.098 23.4416 265.191 23.9147 265.254 24.3743C265.32 24.8303 265.349 25.2426 265.349 25.6153V32.0305H263.024V20.3144H265.572L270.372 26.9543C270.679 27.3596 270.954 27.7625 271.193 28.1517C271.435 28.5476 271.64 28.9606 271.816 29.3867H271.882C271.766 28.9032 271.673 28.4299 271.611 27.9706C271.544 27.5143 271.511 27.0986 271.511 26.7258V20.3144Z" fill="#151616"/>
<path fill-rule="evenodd" clip-rule="evenodd" d="M281.283 32.0305H278.779V22.2237L275.062 22.2606V20.3144H285V22.2606L281.283 22.2237V32.0305Z" fill="#151616"/>
</svg>

<svg width="285" height="33" fill="none" xmlns="http://www.w3.org/2000/svg"><path fill-rule="evenodd" clip-rule="evenodd" d="M176.243 20.126v-6.364l6.864 6.364h-6.864Zm33.457 0h-17.948L170.545 0v33h5.698v-7.25h12.925L196.99 33h8.328l-7.64-7.25H209.7c1.534 0 2.779-1.262 2.779-2.812 0-1.554-1.245-2.812-2.779-2.812ZM107.505 20.126l7.225-6.807v6.807h-7.225ZM124.45 8.065c-.66 7.325 2.921 11.024 7.085 11.024s18.044.148 18.044.148 3.723 0 3.723 3.107v2.516s-.288 2.775-2.736 2.775c-2.448 0-30.062-.406-30.062-.406L120.577 0l-20.85 20.126H81.855c-1.53 0-2.775 1.258-2.775 2.812 0 1.55 1.244 2.811 2.775 2.811H93.9L86.387 33h7.45l7.699-7.25h13.194V33h35.942s8.037-.296 8.037-7.25v-4.443s-1.17-7.471-7.159-7.471h-19.723s-2.044-.517-2.044-3.033V8.286s.364-2.331 2.299-2.331h26.627V0h-27.101s-7.158 1.405-7.158 8.065ZM161.047 33h5.771V0h-5.771v33Z" fill="#DF2D17"/><path fill-rule="evenodd" clip-rule="evenodd" d="M6.221 32.238c-1.004 0-1.892-.154-2.667-.46-.778-.308-1.431-.731-1.955-1.278a5.345 5.345 0 0 1-1.195-1.93A7 7 0 0 1 0 26.173c0-.859.136-1.657.404-2.399a5.33 5.33 0 0 1 1.195-1.929c.524-.546 1.177-.972 1.955-1.278.775-.308 1.663-.463 2.667-.463.706 0 1.355.063 1.944.192.59.127 1.163.325 1.713.59l-.613 1.72a6.49 6.49 0 0 0-2.852-.657c-1.299 0-2.273.37-2.928 1.11-.653.743-.98 1.783-.98 3.114 0 1.332.33 2.369.99 3.11.662.742 1.632 1.114 2.918 1.114.384 0 .845-.057 1.378-.175a6.95 6.95 0 0 0 1.59-.556l.577 1.741c-.518.266-1.09.47-1.726.617a9.244 9.244 0 0 1-2.01.215ZM11.882 20.31h8.434v1.914h-6.009v2.868h5.645v1.912h-5.645v3.114h6.125v1.913h-8.55V20.31ZM30.486 20.31h2.501v11.72h-2.5l-4.43-6.643c-.272-.402-.51-.805-.725-1.198a9.175 9.175 0 0 1-.547-1.235h-.056c.102.488.179.96.238 1.42.056.456.087.869.087 1.241v6.416h-2.505V20.31h2.696l4.237 6.643c.272.406.51.805.723 1.198.212.396.394.809.55 1.235h.06a15.746 15.746 0 0 1-.243-1.416 9.685 9.685 0 0 1-.086-1.242v-6.418ZM40.596 32.03h-2.504v-9.806l-3.717.037v-1.95h9.935v1.95l-3.714-.037v9.807ZM52.727 23.945c0-.51-.18-.917-.53-1.225-.355-.306-.888-.46-1.607-.46H48.2v3.443h2.391c.666 0 1.19-.158 1.567-.47.382-.313.57-.742.57-1.288Zm2.501 0c0 .811-.251 1.503-.759 2.07-.507.567-1.159.979-1.954 1.234l3.061 4.782H52.9l-2.792-4.383h-1.908v4.383h-2.502V20.31h4.873c.742 0 1.405.097 1.981.289.58.19 1.067.446 1.465.772.4.324.702.71.907 1.156.202.447.305.92.305 1.417ZM60.373 27.528h3.236l-.64-1.758-.96-2.99h-.04l-.96 2.99-.636 1.758Zm3.965 1.879h-4.697l-.981 2.624h-2.62l4.68-11.72h2.54l4.682 11.72h-2.62l-.984-2.624ZM69.403 20.31l2.504-.015v9.79h5.738v1.946h-8.242V20.31ZM223.63 32.238c-1 0-1.888-.154-2.667-.46-.775-.308-1.427-.731-1.954-1.278a5.39 5.39 0 0 1-1.193-1.93 6.929 6.929 0 0 1-.403-2.398c0-.859.132-1.657.403-2.399a5.376 5.376 0 0 1 1.193-1.929c.527-.546 1.179-.972 1.954-1.278.779-.308 1.667-.463 2.667-.463.706 0 1.351.063 1.945.192a7.65 7.65 0 0 1 1.716.59l-.616 1.72a6.486 6.486 0 0 0-2.853-.657c-1.295 0-2.272.373-2.925 1.11-.655.743-.984 1.783-.984 3.114 0 1.332.332 2.369.994 3.11.659.745 1.634 1.114 2.915 1.114a6.49 6.49 0 0 0 1.378-.175 6.979 6.979 0 0 0 1.59-.552l.577 1.737a7.35 7.35 0 0 1-1.723.617 9.086 9.086 0 0 1-2.014.215ZM228.437 20.31h7.738v1.917l-5.512-.003v2.872h5.177v1.912h-5.177v3.11h5.615v1.913h-7.841V20.31ZM243.191 32.242s-2.077-6.157-2.229-6.677l-.981 6.465h-2.299l1.677-11.716h2.262l2.766 8.683c.063-.43 2.438-8.683 2.438-8.683h2.664l1.781 11.716h-2.447l-.855-6.633c-.156.52-2.424 6.845-2.424 6.845h-2.353ZM253.036 20.314h8.435v1.91h-6.01v2.872h5.645v1.912h-5.645v3.11h6.126v1.913h-8.551V20.314ZM271.511 20.314h2.405v11.717h-2.405l-5.022-6.64c-.308-.406-.58-.805-.818-1.202a8.163 8.163 0 0 1-.623-1.235h-.067c.117.488.21.96.273 1.42.066.456.095.869.095 1.241v6.416h-2.325V20.314h2.548l4.8 6.64c.307.406.582.808.821 1.198.242.396.447.809.623 1.235h.066a14.295 14.295 0 0 1-.271-1.416 8.637 8.637 0 0 1-.1-1.245v-6.412ZM281.283 32.03h-2.504v-9.806l-3.717.037v-1.947H285v1.947l-3.717-.037v9.807Z" fill="#151616"/></svg>
